images/icons/google-play.svg

<svg fill="none" height="24" viewBox="0 0 24 24" width="24" xmlns="http://www.w3.org/2000/svg"><path d="m11.2951 11.4632-9.94171 10.5484c.30805 1.1482 1.35356 1.9883 2.5951 1.9883.49475 0 .9615-.1306 1.3629-.3733l.028-.0187 11.18321-6.4504-5.2369-5.7036z" fill="#ea4335"/><path d="m21.3488 9.67101h-.0094l-4.8261-2.8098-5.4423 4.84479 5.461 5.4609 4.8074-2.7724c.8402-.4574 1.4096-1.3443 1.4096-2.3618s-.5601-1.9043-1.4002-2.35236z" fill="#fbbc04"/><path d="m1.35336 1.99768c-.05601.22404-.09335.44808-.09335.69078v18.63244c0 .2427.028.4667.09335.6908l10.27774-10.2777z" fill="#4285f4"/><path d="m11.3697 12.0047 5.1436-5.14356-11.17391-6.478409c-.4014-.242707-.87748-.382731-1.3909-.382731-1.24154 0-2.28705.849475-2.5951 1.98833l10.01631 10.00697z" fill="#34a853"/></svg>

<svg width="24" height="24" viewBox="0 0 24 24" fill="none" xmlns="http://www.w3.org/2000/svg">
<path d="M11.2951 11.4632L1.35339 22.0116C1.66144 23.1598 2.70695 23.9999 3.94849 23.9999C4.44324 23.9999 4.90999 23.8693 5.31139 23.6266L5.33939 23.6079L16.5226 17.1575L11.2857 11.4539L11.2951 11.4632Z" fill="#EA4335"/>
<path d="M21.3488 9.67101H21.3394L16.5133 6.86121L11.071 11.706L16.532 17.1669L21.3394 14.3945C22.1796 13.9371 22.749 13.0502 22.749 12.0327C22.749 11.0152 22.1889 10.1284 21.3488 9.68034V9.67101Z" fill="#FBBC04"/>
<path d="M1.35336 1.99768C1.29735 2.22172 1.26001 2.44576 1.26001 2.68846V21.3209C1.26001 21.5636 1.28801 21.7876 1.35336 22.0117L11.6311 11.734L1.35336 1.99768Z" fill="#4285F4"/>
<path d="M11.3697 12.0047L16.5133 6.86114L5.33939 0.382731C4.93799 0.140024 4.46191 0 3.94849 0C2.70695 0 1.66144 0.849475 1.35339 1.98833L11.3697 11.9953V12.0047Z" fill="#34A853"/>
</svg>
